X: 30573
T: One After, The
R: strathspey
M: 4/4
K: Amixolydian
|:A2B>A e>AB>A|G>AB>c d<Bg>B|A2B>A e>Ac>e|1 (3f^ga e>d c>ae>c:|2 (3f^ga e>d c>AA>^G||
A>a^g<a e>ac>A|B>=gf<g B>AG>B|A>a^g<a e>ac>e|(3f^ga e>d c>AA>^G|
A>a^g<a e>ac>A|B=gf<g B>AG>B|A2B>A e>Ac>e|(3f^ga e>d c>ae>c|

